X:81
T:In a Sentimantal Mood
C:
N:TablEdited by Will Patton
L:1/8
Q:1/4=100
M:4/4
K:F
z2 F_G Ac df |: g8 | z2 fg "Dm6/B"fe dc | "Gm"A3d "Gm/F#"A4 | "Gm7/F"zA c(3d2 "Em7b5"(3_A2G2 "A7"F2 | 
"Dm"D4 zF Ac | "D9"e6 d2 | "Gm7"[B4F4G,4] "C7"[E4B,4] |1 [F2A,2] FG Ac df :|2 F4 "Ab7"_A4 |] 
"DbM7"c2 Bc "Bbm7"_e_d cB | "Ebm7"F2 _EF "Ab7"_G_A FE | "DbM7"_D4 "Bbm7"(3_G2=G2 B2 | 
"Ebm7"(3=B2c2 _e2 (3"Ab7"=e2f2 _a2 | "DbM7"c2 Bc "Bbm7"_e_d cB | "Ebm7"F2 _EF "Ab7"_G_A FE | 
"Gm11"C8 | "C7"z2 FG Ac df :|3 F8 |] 


